X: 305829
T: COTILLION No. 36. COURT STREET SETT tune 2
C:
%R: jig
B: Elias Howe "The Musician's Companion" Part 3 1844 p.148 #2
S: http://imslp.org/wiki/The_Musician's_Companion_(Howe,_Elias)
Z: 2015 John Chambers <jc:trillian.mit.edu>
M: 6/8
L: 1/8
K: G
% - - - - - - - - - - - - - - - - - - - - - - - - -
D |\
DGG BAG | B>cB BAG | cde dBG | GFG AFD |\
DGG BAG | gfg dBG | def gab | c'af g2 H|]
b |\
b2g g2d | dgb b2a | a2f f2d | dfa a2g |\
b2g g2d | dgb b2a | a2f f2d | dfa "^D.C."g2 |]
c |\
B2c edB | def gdB | dcB cBA | BAB ABc |\
B2c edc | def gdB | bgd gdB | cAF "^D.C."G2 |]
% - - - - - - - - - - Dance description - - - - - - - - - -
%%begintext align
%% First 2 give right hand across,
%% left hand back,
%% form a line,
%% balance 4 in a line,
%% half promenade,
%% ladies forward and back,
%% gentlemen the same,
%% balance 4, &c.
%%endtext
% - - - - - - - - - - - - - - - - - - - - - - - - -
%%sep 1 1 300


